X:474
%%etbk:tnset id:193,pos:1,rep:3x,ant:
T: The Black Velvet Band (F)
H: Created 2013-07-02 /  Modified 2013-07-02
R: song
M: 3/4
L: 1/4
K: Fmaj
 c | "F"c2c | ABc | BA2-| A2G |
 FGA | FED | "C7"C3- | C2c/B/ | 
"F"A2A | "C7"CDE |  "dm"F2G | A2A |
 "gm"GAB | "C7"EFG | "F"F3- | F2 |]


